X:146
T:Nottingam Races. JC.145
R:Country-dance
S:John Clare,Poet,Helpstone (1793-1864)
O:England
A:Northamptonshire
Z:vmp.P. Headford
M:2/4
L:1/8
Q:1/4=110
K:D
” As Writ”d/e/f/e/ dA|\
B/e/d/c/ BA|GFED|CEE2|!
d/e/f/e/ dA|deBA|EGA2:|!
|:A/B/c/B/ AB|c/d/e/d/ cd|efgf|e/d/c/B/A2|!
BG dB|AF fe|gfed|Acd2:|!
|:dcdc|B2Ad|cdef|fage|!
dcdc|B2cd|cd f/e/d/c/|d4:|

